libs/ui/packages/crypto-icons/src/svg/NDZ.svg

<svg width="24" height="24" viewBox="0 0 24 24" fill="none">
<path fill-rule="evenodd" clip-rule="evenodd" d="M13.9395 13.0319C13.8743 13.0522 13.8112 13.0769 13.7498 13.1054L10.9927 10.2397C11.1019 10.0505 11.1663 9.8389 11.1812 9.62103C11.196 9.40315 11.1608 9.18476 11.0783 8.98256C10.9958 8.78037 10.8682 8.59971 10.7052 8.4544C10.5421 8.30908 10.3481 8.20297 10.1378 8.14416V6.13941L9.39975 5.72691L11.1045 4.74066C11.3767 4.58317 11.6856 4.50024 12 4.50024C12.3144 4.50024 12.6233 4.58317 12.8955 4.74066L16.2847 6.70266L14.9452 7.47741C14.727 7.38059 14.4881 7.33982 14.2501 7.35879C14.0121 7.37776 13.7827 7.45587 13.5825 7.58603C13.3824 7.71619 13.218 7.89428 13.1042 8.10413C12.9903 8.31397 12.9307 8.54893 12.9307 8.78766C12.9308 9.0935 13.0288 9.39128 13.2103 9.63743C13.3918 9.88359 13.6473 10.0652 13.9395 10.1557V13.0319ZM14.793 13.0319V10.1549C14.9979 10.0914 15.186 9.98258 15.3432 9.83661C15.5005 9.69064 15.623 9.51121 15.7016 9.31157C15.7802 9.11193 15.813 8.89717 15.7975 8.68317C15.782 8.46917 15.7186 8.26138 15.612 8.07516L17.1345 7.19466L17.862 7.61466C18.1321 7.77097 18.3564 7.99561 18.5123 8.26601C18.6681 8.53641 18.7501 8.84305 18.75 9.15516V14.8447C18.75 15.4792 18.4118 16.0657 17.8612 16.3844L14.7938 18.1604V15.7664C15.0851 15.6753 15.3397 15.4934 15.5204 15.2474C15.7011 15.0014 15.7985 14.7041 15.7985 14.3989C15.7984 14.0936 15.7008 13.7964 15.5199 13.5505C15.3391 13.3046 15.0844 13.1229 14.793 13.0319ZM13.1227 13.6837C13.0156 13.8698 12.9516 14.0778 12.9357 14.292C12.9197 14.5062 12.9522 14.7213 13.0306 14.9213C13.1091 15.1213 13.2315 15.3011 13.3888 15.4474C13.5461 15.5937 13.7343 15.7027 13.9395 15.7664V18.6547L12.8955 19.2592C12.6233 19.4166 12.3144 19.4996 12 19.4996C11.6856 19.4996 11.3767 19.4166 11.1045 19.2592L7.455 17.1472L8.826 16.0762C9.08462 16.2932 9.41161 16.412 9.74925 16.4114C9.93759 16.4117 10.1241 16.3749 10.2982 16.303C10.4723 16.2312 10.6306 16.1257 10.7639 15.9927C10.8972 15.8596 11.003 15.7016 11.0752 15.5277C11.1474 15.3537 11.1847 15.1673 11.1848 14.9789C11.1845 14.6663 11.0819 14.3623 10.8927 14.1134C10.7035 13.8646 10.4381 13.6844 10.137 13.6004V10.9019C10.2157 10.8802 10.2922 10.8517 10.365 10.8172L13.1227 13.6837ZM9.28425 13.6244C8.93971 13.7421 8.6529 13.9865 8.4821 14.308C8.31131 14.6296 8.26935 15.0041 8.36475 15.3554L6.6615 16.6874L6.13875 16.3852C5.86847 16.2289 5.64406 16.0043 5.48806 15.7339C5.33205 15.4635 5.24995 15.1568 5.25 14.8447V9.15516C5.25 8.52066 5.58825 7.93416 6.13875 7.61541L8.5425 6.22341L9.285 6.63816V8.16816C9.00268 8.265 8.75766 8.4476 8.58417 8.69046C8.41067 8.93332 8.31736 9.2243 8.31728 9.52277C8.3172 9.82123 8.41034 10.1123 8.5837 10.3552C8.75707 10.5982 9.00199 10.7809 9.28425 10.8779V13.6244ZM9.75 10.1422C9.66679 10.1452 9.58382 10.1314 9.50605 10.1016C9.42829 10.0719 9.35731 10.0267 9.29734 9.96897C9.23738 9.91119 9.18966 9.84194 9.15704 9.76533C9.12441 9.68872 9.10755 9.60633 9.10745 9.52306C9.10735 9.43979 9.12401 9.35736 9.15645 9.28067C9.18889 9.20398 9.23644 9.13461 9.29626 9.07669C9.35608 9.01877 9.42696 8.97349 9.50465 8.94355C9.58235 8.91361 9.66528 8.89962 9.7485 8.90241C9.90918 8.9078 10.0615 8.97537 10.1733 9.09087C10.2851 9.20638 10.3478 9.36079 10.3479 9.52156C10.3481 9.68233 10.2859 9.83689 10.1744 9.95267C10.0628 10.0684 9.91067 10.1364 9.75 10.1422ZM9.75 15.5984C9.66679 15.6014 9.58382 15.5876 9.50605 15.5579C9.42829 15.5281 9.35731 15.483 9.29734 15.4252C9.23738 15.3674 9.18966 15.2982 9.15704 15.2216C9.12441 15.145 9.10755 15.0626 9.10745 14.9793C9.10735 14.896 9.12401 14.8136 9.15645 14.7369C9.18889 14.6602 9.23644 14.5909 9.29626 14.5329C9.35608 14.475 9.42696 14.4297 9.50465 14.3998C9.58235 14.3699 9.66528 14.3559 9.7485 14.3587C9.90918 14.3641 10.0615 14.4316 10.1733 14.5471C10.2851 14.6626 10.3478 14.817 10.3479 14.9778C10.3481 15.1386 10.2859 15.2931 10.1744 15.4089C10.0628 15.5247 9.91067 15.5926 9.75 15.5984ZM14.3663 9.40716C14.283 9.41015 14.2001 9.39636 14.1223 9.36661C14.0445 9.33685 13.9736 9.29174 13.9136 9.23397C13.8536 9.17619 13.8059 9.10694 13.7733 9.03033C13.7407 8.95372 13.7238 8.87133 13.7237 8.78806C13.7236 8.70479 13.7403 8.62236 13.7727 8.54567C13.8051 8.46898 13.8527 8.39961 13.9125 8.34169C13.9723 8.28377 14.0432 8.23849 14.1209 8.20855C14.1986 8.17861 14.2815 8.16462 14.3647 8.16741C14.5254 8.1728 14.6777 8.24037 14.7896 8.35587C14.9014 8.47138 14.964 8.62579 14.9642 8.78656C14.9644 8.94733 14.9022 9.10189 14.7906 9.21766C14.6791 9.33344 14.5269 9.40138 14.3663 9.40716ZM14.3663 15.0187C14.2017 15.0189 14.0439 14.9537 13.9274 14.8375C13.811 14.7213 13.7454 14.5637 13.7452 14.3992C13.7451 14.2347 13.8102 14.0768 13.9264 13.9604C14.0426 13.8439 14.2002 13.7784 14.3647 13.7782C14.5293 13.778 14.6871 13.8431 14.8036 13.9593C14.92 14.0755 14.9856 14.2332 14.9858 14.3977C14.9859 14.5622 14.9208 14.72 14.8046 14.8365C14.6884 14.9529 14.5308 15.0185 14.3663 15.0187Z" fill="#622FBA"/>
</svg>

<svg width="24" height="24" viewBox="0 0 24 24" fill="none"><path fill="#622fba" fill-rule="evenodd" d="M13.94 13.032q-.099.03-.19.073l-2.757-2.865a1.433 1.433 0 0 0-.855-2.096V6.14L9.4 5.727l1.704-.986a1.79 1.79 0 0 1 1.792 0l3.389 1.962-1.34.774a1.433 1.433 0 1 0-1.005 2.679zm.853 0v-2.877a1.43 1.43 0 0 0 .819-2.08l1.522-.88.728.42a1.78 1.78 0 0 1 .888 1.54v5.69a1.78 1.78 0 0 1-.889 1.54l-3.067 1.775v-2.394a1.432 1.432 0 0 0-.001-2.734m-1.67.652a1.433 1.433 0 0 0 .817 2.082v2.889l-1.044.604a1.79 1.79 0 0 1-1.792 0l-3.649-2.112 1.371-1.07a1.43 1.43 0 0 0 1.472.226 1.433 1.433 0 0 0-.161-2.703v-2.698q.118-.033.228-.085zm-3.839-.06a1.433 1.433 0 0 0-.92 1.731l-1.703 1.332-.522-.302a1.78 1.78 0 0 1-.889-1.54v-5.69c0-.634.338-1.22.889-1.54l2.404-1.392.742.415v1.53a1.432 1.432 0 0 0 0 2.71zm.466-3.482a.62.62 0 1 1-.045-1.238.62.62 0 0 1 .045 1.238m0 5.456a.621.621 0 1 1-.045-1.241.621.621 0 0 1 .045 1.241m4.616-6.19a.62.62 0 1 1-.044-1.241.62.62 0 0 1 .044 1.24m0 5.61a.62.62 0 1 1-.001-1.24.62.62 0 0 1 .001 1.24" clip-rule="evenodd"/></svg>
